X:1
T:Metropolitan Reel
M:C
L:1/8
Q:215
C:(c) Greg Anderson 23 Aug 1999
R:Reel
H:This tune came about as a result of an adventure on the subway system -
H:the "metro" - of Paris
K:Em
B,|:EF GB AG FG|EF GE A2 A2|d^c BA ^G2 G2|
^GB ^cB d2 c2|EF GB AG FG|!EF GE A2 A2|
d^c BA ^G2 G2-|1^G2 =GF D E3:|2^GB ^cB d2^c2||!
|:e2 B e3 (3BBB|eB fB gB fB|(3dAd Bd Ad Gd|
FD FA dA Fd|e2 B e3 (3BBB|!eB fB g2 gb|1e'd' ba gf eg|fd Bf e4:|
2ag fe dB AG|FD B,F E3 B,||
